X: 21281
T: The NEW FRENCH STOP WALTZ
C: Lafont.
%R: waltz
B: W. Hamilton "Universal Tune-Book" Vol. 2 Glasgow 1846 p.128 #1
S: http://s3-eu-west-1.amazonaws.com/itma.dl.printmaterial/book_pdfs/hamiltonvol2web.pdf
Z: 2016 John Chambers <jc:trillian.mit.edu>
M: 3/4
L: 1/8
K: G
% - - - - - - - - - - - - - - - - - - - - - - - - -
D2 |\
G2F2G2 | F2E2D2 | A2G2A2 | B2G2GB |\
d2d2d2 | ^de=dcBA | GFEDEF | G4 |] !p!A2 |\
d2ABA2 | d2ABA2 | e2d2e2 | f4d2 |\
g2B2e2 | f2A2d2 |
e2A2^c2 | d4 |] !f!D2 |\
G2F2G2 | F2E2D2 | A2G2A2 | B2G2GB |\
d2d2d2 | ^de=dcBA | GFEDEF | G4 |] !ff!c2 |\
G2z2c2 | G2z2c2 | B2c2d2 | e4e2 |
d2=f3d | c2e3c | B2d3B | c4 |] G2 |\
G2Bdg2 | G2Bdg2 | G2g2g2 | G2g2g2 |\
"^stop"z6 | z2z2!p!c2 |\
G2z2c2 | G2z2c2 | B2c2d2 | e4e2 |
d2=f3d | c2e3c | B2d3B | c4 |] !f!D2 |\
G2F2G2 | F2E2D2 | A2G2A2 | B2G2GB |\
d2d2d2 | ^de=dcBA | GFEDEF | G4 |]
% - - - - - - - - - - - - - - - - - - - - - - - - -

%%sep 1 1 500
%%sep 1 1 500

